packages/sights/assets/overlays/j8YHvnDP.svg

<svg width="500" height="375" viewBox="0 0 500 375" fill="none" xmlns="http://www.w3.org/2000/svg">
<path d="M368.689 5C368.689 5 431.059 47.52 435.999 50.88C435.999 50.88 473.289 69.53 478.799 75.65C478.799 75.65 476.659 114.48 474.799 118.14C474.799 118.14 469.609 122.43 471.439 123.65C473.269 124.87 486.439 155.44 486.439 155.44C486.439 155.44 487.359 164 484.609 170.44L480.329 175.02C480.329 175.02 472.329 216.02 468.399 226.08L472.069 229.44L471.459 233.72C471.459 233.72 394.569 299.61 345.459 318.41C345.459 318.41 258.319 347.3 231.269 349.59C231.269 349.59 196.869 354.18 163.849 338.13L134.499 313.81C134.499 313.81 86.3491 164.75 59.2891 162.48C59.2891 162.48 35.4491 163.7 62.0391 232.18C62.0391 232.18 37.0391 214.73 13.0391 177.6" stroke="white" stroke-miterlimit="10"/>
<path d="M40 5C40 5 24.15 24 13 68.62" stroke="white" stroke-miterlimit="10"/>
<path d="M142.15 5C142.15 5 151.93 27.34 151.93 28.87C151.93 30.4 159.57 33.46 159.57 33.46C159.57 33.46 298.07 24.59 436 50.88" stroke="white" stroke-miterlimit="10"/>
<path d="M125.331 67.3903C125.331 67.3903 122.891 71.9803 122.891 72.9003C122.891 73.8203 140.621 131.29 142.151 131.29C143.681 131.29 226.241 136.18 249.771 131.29C249.771 131.29 278.771 112.64 279.771 113.29C280.771 113.94 294.771 110.29 294.771 110.29C294.771 110.29 328.401 108.15 329.311 107.53L333.901 104.53C333.901 104.53 349.491 82.2103 351.901 77.6203L354.001 67.3903C354.001 67.3903 337.491 58.5303 310.001 57.9203C310.001 57.9203 143.371 49.3603 125.331 67.3903Z" stroke="white" stroke-miterlimit="10"/>
<path d="M473.451 71.54L474.781 75.8L470.961 81L474.021 97.97L477.001 101.35" stroke="white" stroke-miterlimit="10"/>
<path d="M249.77 131.29L251.29 160.34C251.74 163.68 253.419 166.732 256 168.9L303 209.56C303 209.56 313.7 216.29 331.74 215.06C331.74 215.06 476.95 177.15 486.59 158.5" stroke="white" stroke-miterlimit="10"/>
<path d="M471.42 123.65L466.83 148.41C466.83 148.41 463.78 156.06 459.83 156.97C459.83 156.97 362.91 197.08 293.66 201.48" stroke="white" stroke-miterlimit="10"/>
<path d="M354 67.3896C354 67.3896 468.8 71.2097 474.76 75.7997" stroke="white" stroke-miterlimit="10"/>
<path d="M477.821 187.25C477.821 187.25 478.451 177.15 474.321 179.25C474.321 179.25 412.721 210.25 382.531 218.47C382.531 218.47 373.431 219.38 359.221 240.02C359.221 240.02 310.611 312.02 286.761 322.57C286.761 322.57 238.611 335.87 204.211 331.74" stroke="white" stroke-miterlimit="10"/>
<path d="M49.53 178.94C49.53 178.94 43.39 136.49 63.27 144.13C63.27 144.13 94.15 153.76 136.34 285.84C136.34 285.84 192.74 326.42 325.1 285.84" stroke="white" stroke-miterlimit="10"/>
<path d="M107.359 353.38C115.177 351.338 112.647 315.739 101.709 273.867C90.7714 231.995 75.5669 199.706 67.7493 201.749C59.9317 203.791 62.4614 239.39 73.3994 281.262C84.3375 323.134 99.5419 355.423 107.359 353.38Z" stroke="white" stroke-miterlimit="10"/>
<path d="M173.09 342.09C156.914 352.684 139.85 361.855 122.09 369.5L113.84 368.39C113.84 368.39 90.8395 359.29 72.4395 277.55" stroke="white" stroke-miterlimit="10"/>
<path d="M76.4895 177.6C76.4895 177.6 52.4895 175.33 65.3695 242.6" stroke="white" stroke-miterlimit="10"/>
<path d="M13 76.26C13 76.26 45.54 55.39 93 44.85C93 44.85 91.85 7.35 93 5" stroke="white" stroke-miterlimit="10"/>
<path d="M49.6603 5C49.6603 5 33.0003 55.51 34.0003 65.08" stroke="white" stroke-miterlimit="10"/>
<path d="M13 163.39C13 163.39 34.58 194.47 53.13 205.3" stroke="white" stroke-miterlimit="10"/>
<path d="M13 198.48C13 198.48 23.3 198.07 26.51 196.48" stroke="white" stroke-miterlimit="10"/>
<path d="M177.609 32.6602C177.609 32.6602 197.999 55.0402 198.699 56.2502" stroke="white" stroke-miterlimit="10"/>
<path d="M142.15 131.29C142.15 131.29 104 179.67 104 182.2L100.35 193.75" stroke="white" stroke-miterlimit="10"/>
<path d="M387.289 217.02C387.289 217.81 387.289 250.68 387.289 250.68L459.289 211.55L460.179 186.11" stroke="white" stroke-miterlimit="10"/>
</svg>

<svg width="500" height="375" fill="none" xmlns="http://www.w3.org/2000/svg"><path d="M368.689 5s62.37 42.52 67.31 45.88c0 0 37.29 18.65 42.8 24.77 0 0-2.14 38.83-4 42.49 0 0-5.19 4.29-3.36 5.51 1.83 1.22 15 31.79 15 31.79s.92 8.56-1.83 15l-4.28 4.58s-8 41-11.93 51.06l3.67 3.36-.61 4.28s-76.89 65.89-126 84.69c0 0-87.14 28.89-114.19 31.18 0 0-34.4 4.59-67.42-11.46l-29.35-24.32s-48.15-149.06-75.21-151.33c0 0-23.84 1.22 2.75 69.7 0 0-25-17.45-49-54.58M40 5S24.15 24 13 68.62" stroke="#fff" stroke-miterlimit="10"/><path d="M142.15 5s9.78 22.34 9.78 23.87c0 1.53 7.64 4.59 7.64 4.59S298.07 24.59 436 50.88M125.331 67.39s-2.44 4.59-2.44 5.51c0 .92 17.73 58.39 19.26 58.39 1.53 0 84.09 4.89 107.62 0 0 0 29-18.65 30-18 1 .65 15-3 15-3s33.63-2.14 34.54-2.76l4.59-3s15.59-22.32 18-26.91l2.1-10.23s-16.51-8.86-44-9.47c0 0-166.63-8.56-184.67 9.47ZM473.451 71.54l1.33 4.26-3.82 5.2 3.06 16.97 2.98 3.38" stroke="#fff" stroke-miterlimit="10"/><path d="m249.77 131.29 1.52 29.05a13.54 13.54 0 0 0 4.71 8.56l47 40.66s10.7 6.73 28.74 5.5c0 0 145.21-37.91 154.85-56.56" stroke="#fff" stroke-miterlimit="10"/><path d="m471.42 123.65-4.59 24.76s-3.05 7.65-7 8.56c0 0-96.92 40.11-166.17 44.51M354 67.39s114.8 3.82 120.76 8.41M477.821 187.25s.63-10.1-3.5-8c0 0-61.6 31-91.79 39.22 0 0-9.1.91-23.31 21.55 0 0-48.61 72-72.46 82.55 0 0-48.15 13.3-82.55 9.17" stroke="#fff" stroke-miterlimit="10"/><path d="M49.53 178.94s-6.14-42.45 13.74-34.81c0 0 30.88 9.63 73.07 141.71 0 0 56.4 40.58 188.76 0" stroke="#fff" stroke-miterlimit="10"/><path d="M107.359 353.38c7.818-2.042 5.288-37.641-5.65-79.513-10.938-41.872-26.142-74.161-33.96-72.118-7.817 2.042-5.288 37.641 5.65 79.513 10.939 41.872 26.143 74.161 33.96 72.118Z" stroke="#fff" stroke-miterlimit="10"/><path d="M173.09 342.09a334.441 334.441 0 0 1-51 27.41l-8.25-1.11s-23-9.1-41.4-90.84M76.49 177.6s-24-2.27-11.12 65M13 76.26s32.54-20.87 80-31.41c0 0-1.15-37.5 0-39.85" stroke="#fff" stroke-miterlimit="10"/><path d="M49.66 5S33 55.51 34 65.08M13 163.39s21.58 31.08 40.13 41.91M13 198.48s10.3-.41 13.51-2M177.609 32.66s20.39 22.38 21.09 23.59M142.15 131.29S104 179.67 104 182.2l-3.65 11.55M387.289 217.02v33.66l72-39.13.89-25.44" stroke="#fff" stroke-miterlimit="10"/></svg>
